X: 8
T: The Musical Priest
R: reel
M: 4/4
L: 1/8
K: Gmin
|:GF| DGGF GFGB | AGFd cAGF | DGGF GFGB | AGFD G2 GA :||
|:B2 BA BdcB | AFcF dF c2 | BAGA Bcdg | fdcA G2 GA :||
|:BG G2 gfdg | fdcA FGAc | BG G2 gfdg | fdcA G2 G2 :||


Tune 73	Setting 22931

